X:1
T:D minor Oliver Holden, 1800
T:Isaac Watts, 1709 (Hymn 52, Book 2) 86. 86. (C. M.)
T:Solemnity No copyright. Transcribed from Plain Psalmody, 1800.
%%score [ 1 2 3 4 ]
L:1/8
M:4/4
K:F
V:1 treble nm="Treble" snm="Tr."
V:2 treble nm="Counter" snm="C."
V:3 treble-8 nm="Tenor" snm="T."
V:4 bass nm="Bass" snm="B."
V:1
 A4 | F2 F2 A2 A2 | A4 A4 | A8 | d4 c2 B2 | A4 c4 | c8 | c4 c2 A2 | A4 B4 | (A2 d2) (^c2 d2) | A8 | %11
 A4 A2 A2 | A4 A4 | A8 |] %14
V:2
 D4 | D2 D2 D2 D2 | (F2 E2) E4 | D8 | F4 F2 G2 | F4 E4 | F8 | F4 F2 F2 | F4 G4 | (F2 A2) (A2 G2) | %10
w: 1.~Death,|'tis a mel- an-|cho- * ly|day|To those who|have no|God;|When their poor|soul is|forced * a- *|
 (F4 E4) | F4 E2 F2 | E4 E4 | D8 |] %14
w: way, *|To seek her|last a-|bode.|
V:3
 D4 | A2 A2 F2 A2 | (d2 e2) ^c4 | d8 | B4 A2 G2 | (c2 A2) G4 | F8 | A4 A2 c2 | (c2 f2) (e2 d2) | %9
 (c2 f2) (e3 d) | (d4 ^c4) | d4 ^c2 d2 | e4 ^c4 | d8 |] %14
V:4
 D,4 | D,2 D,2 D,2 D,2 | A,4 A,,4 | D,8 | F,4 F,2 E,2 | F,4 C,4 | F,8 | F,4 F,2 F,2 | F,4 G,4 | %9
 A,4 A,4 | A,8 | A,4 A,2 A,2 | A,4 A,,4 | D,8 |] %14

